svg/file/news_fill.svg

<?xml version="1.0" encoding="UTF-8"?>
<svg width="24px" height="24px" viewBox="0 0 24 24" version="1.1" xmlns="http://www.w3.org/2000/svg" xmlns:xlink="http://www.w3.org/1999/xlink">
    <title>news_fill</title>
    <g id="页面-1" stroke="none" stroke-width="1" fill="none" fill-rule="evenodd">
        <g id="File" transform="translate(-768.000000, -48.000000)" fill-rule="nonzero">
            <g id="news_fill" transform="translate(768.000000, 48.000000)">
                 <path d="M24,0 L24,24 L0,24 L0,0 L24,0 Z M12.5934901,23.257841 L12.5819402,23.2595131 L12.5108777,23.2950439 L12.4918791,23.2987469 L12.4918791,23.2987469 L12.4767152,23.2950439 L12.4056548,23.2595131 C12.3958229,23.2563662 12.3870493,23.2590235 12.3821421,23.2649074 L12.3780323,23.275831 L12.360941,23.7031097 L12.3658947,23.7234994 L12.3769048,23.7357139 L12.4804777,23.8096931 L12.4953491,23.8136134 L12.4953491,23.8136134 L12.5071152,23.8096931 L12.6106902,23.7357139 L12.6232938,23.7196733 L12.6232938,23.7196733 L12.6266527,23.7031097 L12.609561,23.275831 C12.6075724,23.2657013 12.6010112,23.2592993 12.5934901,23.257841 L12.5934901,23.257841 Z M12.8583906,23.1452862 L12.8445485,23.1473072 L12.6598443,23.2396597 L12.6498822,23.2499052 L12.6498822,23.2499052 L12.6471943,23.2611114 L12.6650943,23.6906389 L12.6699349,23.7034178 L12.6699349,23.7034178 L12.678386,23.7104931 L12.8793402,23.8032389 C12.8914285,23.8068999 12.9022333,23.8029875 12.9078286,23.7952264 L12.9118235,23.7811639 L12.8776777,23.1665331 C12.8752882,23.1545897 12.8674102,23.1470016 12.8583906,23.1452862 L12.8583906,23.1452862 Z M12.1430473,23.1473072 C12.1332178,23.1423925 12.1221763,23.1452606 12.1156365,23.1525954 L12.1099173,23.1665331 L12.0757714,23.7811639 C12.0751323,23.7926639 12.0828099,23.8018602 12.0926481,23.8045676 L12.108256,23.8032389 L12.3092106,23.7104931 L12.3186497,23.7024347 L12.3186497,23.7024347 L12.3225043,23.6906389 L12.340401,23.2611114 L12.337245,23.2485176 L12.337245,23.2485176 L12.3277531,23.2396597 L12.1430473,23.1473072 Z" id="MingCute" fill-rule="nonzero"></path>
                <path d="M16,3 C17.0543909,3 17.9181678,3.81587733 17.9945144,4.85073759 L18,5 L18,10 L19.5,10 C20.2796706,10 20.9204457,10.5949121 20.9931332,11.3555442 L21,11.5 L21,19 C21,20.597725 19.7511226,21.903664 18.1762773,21.9949075 L18,22 L5,22 C3.94563773,22 3.08183483,21.18415 3.00548573,20.1492661 L3,20 L3,5 C3,3.94563773 3.81587733,3.08183483 4.85073759,3.00548573 L5,3 L16,3 Z M19,12 L18,12 L18,20 C18.5523,20 19,19.5523 19,19 L19,12 Z M11,13 L8,13 C7.44772,13 7,13.4477 7,14 C7,14.51285 7.38604429,14.9355092 7.88337975,14.9932725 L8,15 L11,15 C11.5523,15 12,14.5523 12,14 C12,13.48715 11.613973,13.0644908 11.1166239,13.0067275 L11,13 Z M13,8 L8,8 C7.44772,8 7,8.44772 7,9 C7,9.55228 7.44772,10 8,10 L13,10 C13.5523,10 14,9.55228 14,9 C14,8.44772 13.5523,8 13,8 Z" id="形状" fill="#09244B"></path>
            </g>
        </g>
    </g>
</svg>

<svg xmlns="http://www.w3.org/2000/svg" width="24" height="24"><g fill="none" fill-rule="nonzero"><path d="M24 0v24H0V0h24ZM12.593 23.258l-.011.002-.071.035-.02.004-.014-.004-.071-.035c-.01-.004-.019-.001-.024.005l-.004.01-.017.428.005.02.01.013.104.074.015.004.012-.004.104-.074.012-.016.004-.017-.017-.427c-.002-.01-.009-.017-.017-.018Zm.265-.113-.013.002-.185.093-.01.01-.003.011.018.43.005.012.008.007.201.093c.012.004.023 0 .029-.008l.004-.014-.034-.614c-.003-.012-.01-.02-.02-.022Zm-.715.002a.023.023 0 0 0-.027.006l-.006.014-.034.614c0 .012.007.02.017.024l.015-.002.201-.093.01-.008.004-.011.017-.43-.003-.012-.01-.01-.184-.092Z"/><path fill="#09244B" d="M16 3a2 2 0 0 1 1.995 1.85L18 5v5h1.5a1.5 1.5 0 0 1 1.493 1.356L21 11.5V19a3 3 0 0 1-2.824 2.995L18 22H5a2 2 0 0 1-1.995-1.85L3 20V5a2 2 0 0 1 1.85-1.995L5 3h11Zm3 9h-1v8a1 1 0 0 0 1-1v-7Zm-8 1H8a1 1 0 0 0-.117 1.993L8 15h3a1 1 0 0 0 .117-1.993L11 13Zm2-5H8a1 1 0 0 0 0 2h5a1 1 0 1 0 0-2Z"/></g></svg>
